assets/misc-grey/MiscGrey98.svg

<svg xmlns="http://www.w3.org/2000/svg" viewBox="0 0 45 36"><path fill-rule="evenodd" d="M43.758.665a18.65 18.65 0 01-5.864 2.208A9.28 9.28 0 0031.156.002c-5.096 0-9.231 4.069-9.231 9.088 0 .713.083 1.404.238 2.07A26.356 26.356 0 013.135 1.666a8.938 8.938 0 00-1.251 4.569c0 3.151 1.633 5.933 4.108 7.562a9.325 9.325 0 01-4.181-1.136v.115c0 4.402 3.182 8.075 7.406 8.912a9.421 9.421 0 01-4.171.154c1.177 3.609 4.585 6.238 8.624 6.312a18.713 18.713 0 01-11.467 3.891c-.746 0-1.478-.044-2.203-.128A26.451 26.451 0 0014.153 36c16.982 0 26.266-13.845 26.266-25.855 0-.393-.006-.788-.023-1.176A18.585 18.585 0 0045 4.263a18.637 18.637 0 01-5.302 1.432 9.15 9.15 0 004.06-5.03" clip-rule="evenodd"/></svg>

<svg width="45" height="36" viewBox="0 0 45 36" fill="none" xmlns="http://www.w3.org/2000/svg">
<path fill-rule="evenodd" clip-rule="evenodd" d="M43.758,0.665 C41.975,1.708 39.996,2.465 37.894,2.873 C36.212,1.106 33.812,0.002 31.156,0.002 C26.06,0.002 21.925,4.071 21.925,9.09 C21.925,9.803 22.008,10.494 22.163,11.16 C14.491,10.78 7.688,7.163 3.135,1.666 C2.341,3.007 1.884,4.568 1.884,6.235 C1.884,9.386 3.517,12.168 5.992,13.797 C4.48,13.749 3.055,13.341 1.811,12.661 C1.811,12.699 1.811,12.738 1.811,12.776 C1.811,17.178 4.993,20.851 9.217,21.688 C8.441,21.895 7.627,22.006 6.783,22.006 C6.188,22.006 5.611,21.948 5.046,21.842 C6.223,25.451 9.631,28.08 13.67,28.154 C10.51,30.591 6.531,32.045 2.203,32.045 C1.457,32.045 0.725,32.001 0,31.917 C4.087,34.495 8.942,36 14.153,36 C31.135,36 40.419,22.155 40.419,10.145 C40.419,9.752 40.413,9.357 40.396,8.969 C42.196,7.688 43.764,6.088 45,4.263 C43.346,4.988 41.566,5.474 39.698,5.695 C41.605,4.57 43.066,2.789 43.758,0.665" id="Fill-1" fill="#1A1919"/>
</svg>
